packages/core/src/svgs/safe.svg

<svg width="24" height="24" viewBox="0 0 24 24" fill="none" xmlns="http://www.w3.org/2000/svg">
<g clip-path="url(#clip0_31_18235)">
<path d="M0 0H24V24H0V0Z" fill="#F0F3FA"/>
<path d="M4.71436 7.98843C4.71436 8.57557 5.43436 15.917 12.0001 20.1427C18.5658 15.917 19.2858 8.57557 19.2858 7.98843C16.9115 6.14557 13.4401 5.60986 12.0001 5.57129C10.5601 5.60986 7.08864 6.14557 4.71436 7.98843Z" fill="url(#paint0_linear_31_18235)"/>
<path d="M5.57153 8.563C5.57153 9.07728 6.20582 15.5573 12.0001 19.2859C17.7944 15.5573 18.4287 9.08157 18.4287 8.563C16.333 6.93443 13.2687 6.463 12.0001 6.42871C10.7315 6.463 7.66725 6.93443 5.57153 8.563Z" fill="#0C195E"/>
<path d="M6.42847 9.13279C6.42847 9.58279 6.97704 15.1971 11.9999 18.4285C17.0228 15.1971 17.5713 9.58279 17.5713 9.13279C15.7542 7.72279 13.1013 7.31564 11.9999 7.28564C10.8985 7.31564 8.24561 7.72279 6.42847 9.13279Z" fill="#053275"/>
<path d="M7.28564 9.70735C7.28564 10.0888 7.75279 14.8374 11.9999 17.5716C16.2471 14.8374 16.7142 10.0888 16.7142 9.70735C15.1756 8.51592 12.9299 8.16449 11.9999 8.14307C11.0699 8.16878 8.82422 8.51592 7.28564 9.70735Z" fill="#084784"/>
<path d="M8.57153 10.5644C8.57153 10.843 8.9101 14.2973 12.0001 16.2859C15.0901 14.2973 15.4287 10.843 15.4287 10.5644C14.3144 9.69871 12.6772 9.45014 12.0001 9.42871C11.323 9.44585 9.68582 9.69871 8.57153 10.5644Z" fill="#005E9B"/>
<path d="M9.42847 11.1428C9.42847 11.3442 9.68561 13.9371 11.9999 15.4285C14.3142 13.9371 14.5713 11.3442 14.5713 11.1428C13.7313 10.4871 12.5099 10.2985 11.9999 10.2856C11.4899 10.2985 10.2685 10.4871 9.42847 11.1428Z" fill="#007DB7"/>
<path d="M13.6587 10.3715L12.7372 10.6115C12.5701 10.1744 12.2229 10.0029 11.8115 10.0029C11.4044 10.0029 10.9329 10.2001 10.9329 10.6586C10.9329 11.1172 11.6487 11.2886 12.2829 11.4644C13.7187 11.8372 13.8215 12.4715 13.8215 12.9944C13.8215 13.5215 13.4915 14.6786 11.8115 14.6786C10.4701 14.6786 9.86151 13.8344 9.72437 13.4101C9.96865 13.3544 10.4958 13.2215 10.6458 13.1701C10.7487 13.6072 11.1601 13.9372 11.8115 13.9372C12.4672 13.9372 12.8187 13.6929 12.8187 13.2344C12.8187 12.7758 12.4672 12.5786 11.6487 12.3858C10.1315 11.9486 10.0287 11.5115 10.0287 10.7444C10.0287 10.1315 10.4572 9.21436 11.8115 9.21436C12.8958 9.21436 13.4958 9.98578 13.6544 10.3715H13.6587Z" fill="url(#paint1_linear_31_18235)"/>
</g>
<defs>
<linearGradient id="paint0_linear_31_18235" x1="4.86864" y1="8.09557" x2="17.9958" y2="13.5941" gradientUnits="userSpaceOnUse">
<stop stop-color="#7D7D7D"/>
<stop offset="0.55" stop-color="#FEFEFF"/>
<stop offset="1" stop-color="#8D8E93"/>
</linearGradient>
<linearGradient id="paint1_linear_31_18235" x1="13.8429" y1="12.7972" x2="9.88722" y2="12.7972" gradientUnits="userSpaceOnUse">
<stop stop-color="#D7D6D4"/>
<stop offset="0.15" stop-color="#8A888B"/>
<stop offset="0.62" stop-color="#F1EAF2"/>
<stop offset="0.94" stop-color="#736B69"/>
</linearGradient>
<clipPath id="clip0_31_18235">
<rect width="24" height="24" fill="white"/>
</clipPath>
</defs>
</svg>

<svg xmlns="http://www.w3.org/2000/svg" width="24" height="24" fill="none" viewBox="0 0 24 24"><g clip-path="url(#a)"><path fill="#F0F3FA" d="M0 0h24v24H0z"/><path fill="url(#b)" d="M4.714 7.988c0 .588.72 7.929 7.286 12.155 6.566-4.226 7.286-11.567 7.286-12.155C16.91 6.146 13.44 5.61 12 5.571c-1.44.039-4.911.575-7.286 2.417"/><path fill="#0C195E" d="M5.572 8.563c0 .514.634 6.994 6.428 10.723 5.794-3.729 6.429-10.204 6.429-10.723-2.096-1.629-5.16-2.1-6.429-2.134-1.268.034-4.333.505-6.428 2.134"/><path fill="#053275" d="M6.428 9.133c0 .45.549 6.064 5.572 9.296 5.023-3.232 5.571-8.846 5.571-9.296-1.817-1.41-4.47-1.817-5.571-1.847-1.101.03-3.754.437-5.572 1.847"/><path fill="#084784" d="M7.286 9.707c0 .382.467 5.13 4.714 7.865 4.247-2.735 4.714-7.483 4.714-7.865C15.176 8.516 12.93 8.164 12 8.143c-.93.026-3.176.373-4.714 1.564"/><path fill="#005E9B" d="M8.572 10.564c0 .279.338 3.733 3.428 5.722 3.09-1.989 3.429-5.443 3.429-5.722C14.314 9.7 12.677 9.45 12 9.43c-.677.017-2.314.27-3.428 1.135"/><path fill="#007DB7" d="M9.428 11.143c0 .201.258 2.794 2.572 4.285 2.314-1.49 2.571-4.084 2.571-4.285-.84-.656-2.061-.844-2.571-.857-.51.013-1.732.201-2.572.857"/><path fill="url(#c)" d="m13.659 10.372-.922.24c-.167-.438-.514-.61-.925-.61-.408 0-.88.198-.88.657 0 .458.717.63 1.35.805 1.437.373 1.54 1.008 1.54 1.53 0 .527-.33 1.685-2.01 1.685-1.342 0-1.95-.845-2.088-1.269.245-.056.772-.188.922-.24.103.437.514.767 1.165.767.656 0 1.008-.244 1.008-.703s-.352-.655-1.17-.848c-1.517-.437-1.62-.874-1.62-1.642 0-.612.428-1.53 1.783-1.53 1.084 0 1.684.772 1.842 1.157z"/></g><defs><linearGradient id="b" x1="4.869" x2="17.996" y1="8.096" y2="13.594" gradientUnits="userSpaceOnUse"><stop stop-color="#7D7D7D"/><stop offset=".55" stop-color="#FEFEFF"/><stop offset="1" stop-color="#8D8E93"/></linearGradient><linearGradient id="c" x1="13.843" x2="9.887" y1="12.797" y2="12.797" gradientUnits="userSpaceOnUse"><stop stop-color="#D7D6D4"/><stop offset=".15" stop-color="#8A888B"/><stop offset=".62" stop-color="#F1EAF2"/><stop offset=".94" stop-color="#736B69"/></linearGradient><clipPath id="a"><path fill="#fff" d="M0 0h24v24H0z"/></clipPath></defs></svg>
